src/assets/svg/trash.svg

<?xml version="1.0" encoding="UTF-8"?>
<svg width="24px" height="24px" viewBox="0 0 24 24" version="1.1" xmlns="http://www.w3.org/2000/svg" xmlns:xlink="http://www.w3.org/1999/xlink">
    <title>eda3ccad-6e11-4a56-a9be-15bb037c27cd@1.00x</title>
    <g id="Iconography" stroke="none" stroke-width="1" fill="none" fill-rule="evenodd">
        <g id="1.-Primitives/Icons/1.-Foreground-Primary/Trash" fill="#173145">
            <path d="M14.2857143,2.7533531e-14 C16.0297079,2.7533531e-14 17.4690099,1.32744566 17.5661984,3.01757126 L17.5714286,3.2 L17.571,4.5 L22,4.5 C22.5522847,4.5 23,4.94771525 23,5.5 C23,6.01283584 22.6139598,6.43550716 22.1166211,6.49327227 L22,6.5 L21,6.5 L21,20.8 C21,22.5148007 19.6208357,23.9013775 17.899929,23.9949644 L17.7142857,24 L6.28571429,24 C4.54172069,24 3.10241865,22.6725543 3.00523016,20.9824287 L3,20.8 L3,6.5 L2,6.5 C1.44771525,6.5 1,6.05228475 1,5.5 C1,4.98716416 1.38604019,4.56449284 1.88337887,4.50672773 L2,4.5 L6.428,4.5 L6.42857143,3.2 C6.42857143,1.48519926 7.80773575,0.0986225414 9.52864243,0.00503556259 L9.71428571,2.7533531e-14 L14.2857143,2.7533531e-14 Z M19,6.5 L5,6.5 L5,20.8 C5,21.4131337 5.49857107,21.9313292 6.152878,21.9937086 L6.28571429,22 L17.7142857,22 C18.3878337,22 18.9285015,21.5201253 18.993454,20.921254 L19,20.8 L19,6.5 Z M9.5,10 C10.0128358,10 10.4355072,10.3860402 10.4932723,10.8833789 L10.5,11 L10.5,18 C10.5,18.5522847 10.0522847,19 9.5,19 C8.98716416,19 8.56449284,18.6139598 8.50672773,18.1166211 L8.5,18 L8.5,11 C8.5,10.4477153 8.94771525,10 9.5,10 Z M14.5,10 C15.0128358,10 15.4355072,10.3860402 15.4932723,10.8833789 L15.5,11 L15.5,18 C15.5,18.5522847 15.0522847,19 14.5,19 C13.9871642,19 13.5644928,18.6139598 13.5067277,18.1166211 L13.5,18 L13.5,11 C13.5,10.4477153 13.9477153,10 14.5,10 Z M14.2857143,2 L9.71428571,2 C9.04073771,2 8.50006989,2.47987466 8.43511746,3.07874603 L8.42857143,3.2 L8.428,4.5 L15.571,4.5 L15.5714286,3.2 C15.5714286,2.5868663 15.0728575,2.06867079 14.4185506,2.0062914 L14.2857143,2 Z" id="Shape"></path>
        </g>
    </g>
</svg>

<svg width="24" height="24" xmlns="http://www.w3.org/2000/svg"><path d="M14.286 0c1.744 0 3.183 1.327 3.28 3.018l.005.182v1.3H22a1 1 0 01.117 1.993L22 6.5h-1v14.3c0 1.715-1.38 3.101-3.1 3.195l-.186.005H6.286c-1.744 0-3.184-1.327-3.28-3.018L3 20.8V6.5H2a1 1 0 01-.117-1.993L2 4.5h4.428V3.2c0-1.715 1.38-3.101 3.1-3.195L9.715 0h4.572zM19 6.5H5v14.3c0 .613.499 1.131 1.153 1.194l.133.006h11.428c.674 0 1.215-.48 1.28-1.079L19 20.8V6.5zM9.5 10a1 1 0 01.993.883L10.5 11v7a1 1 0 01-1.993.117L8.5 18v-7a1 1 0 011-1zm5 0a1 1 0 01.993.883L15.5 11v7a1 1 0 01-1.993.117L13.5 18v-7a1 1 0 011-1zm-.214-8H9.714c-.673 0-1.214.48-1.279 1.079L8.43 3.2l-.001 1.3h7.143V3.2c0-.613-.498-1.131-1.152-1.194L14.286 2z" /></svg>
